!!!!SEGMENT: pl-sa--l-1643--085_anonim--chwal-syjonie-zbawce.krn
!!!cenid: 16xx:1443
!!!COM: Anonim
!!!COM-rismid: pe30004985
!!!CDT:
!!!CNT:
!!!OTL: Chwal Syjonie zbawcę
!!!PDT:
!!!AGN: Sacred
!!!SMS-siglum: PL-SA
!!!SMS-shelfmark: L 1643
!!!SMS-shelfwork: 085 W
!!!SMS-variant:
!!!SMS-altvar:
!!!NIFC-rismid: 1001063730
!!!URL-scan: http://repozytorium.nifc.pl/skany/pl-sa-nut--l1643
!!!ONB-nifc: UWAGA: 8 ksiąg. Primi chori: 1mus Cantus (x), C 2dus (136-139), C 3tius (x), Bassus (34-36); Secondi chori: Primus Cantus (x), C 2dus (x), Altus (x), Bassus (x). UWAGA: Nie dodawać pustych linii, chyba że w rękopisie pojawiają się dodatkowe oznaczenia dotyczące pełnej obsady (a 4, a 8 itp.)
!!!key:
**kern	**text	**kern	**kern	**text	**kern
*part4	*part4	*part3	*part2	*part2	*part1
*staff4	*staff4	*staff3	*staff2	*staff2	*staff1
*Iempty	*	*Iempty	*Iempty	*	*Iempty
*I"Bassus Primi Chori.	*	*I"Cantus 3tius Primi Chori	*I"Cantus 2dus Primi Chori.	*	*I"1m(us) Cantus Primi Chori
*I'Coro 1 B	*	*I'Coro 1 S 3	*I'Coro 1 S 2	*	*I'Coro 1 S 1
*clefF4	*	*	*clefC1	*	*
*k[b-]	*	*	*k[b-]	*	*
*B-:	*	*	*B-:	*	*
*M3/2	*	*	*M3/2	*	*
=1-	=1-	=1-	=1-	=1-	=1-
1F	CHal	1.ryy	1a	Chwal	1.ryy
2BB-/	Sȳ-	.	2b-\	sÿ-	.
=2-	=2-	=2-	=2-	=2-	=2-
1F	-o-	1.ryy	1a	-o-	1.ryy
2F\	-nie	.	2a\	-nie	.
=3-	=3-	=3-	=3-	=3-	=3-
2F\	Zbaw-	1.ryy	2cc\	zba-	1.ryy
2C/	-ce	.	2cc\	-wce	.
2G\	twe-	.	2b-\	twe-	.
=4-	=4-	=4-	=4-	=4-	=4-
!LO:TX:t=P:problem=kreska pseudotaktowa	!	!	!	!	!
1.C	-go	1.ryy	1.cc,<	-go	1.ryy
=5-	=5-	=5-	=5-	=5-	=5-
1F	chwal	1.ryy	1a	chwal	1.ryy
2BB-/	pa-	.	2b-\	pa-	.
=6-	=6-	=6-	=6-	=6-	=6-
2.F\	-ſtȳ-	1.ryy	2.a\	-ste-	1.ryy
4E\	-rʒa	.	4g/	-rza	.
2D\	nie-	.	2f/	nie-	.
=7-	=7-	=7-	=7-	=7-	=7-
2BB-/	-bie-	1.ryy	1f	-bie-	1.ryy
1C	-ſkie-	.	.	.	.
.	.	.	2e/	-skie-	.
=8-	=8-	=8-	=8-	=8-	=8-
!LO:TX:t=P:problem=kreska pseudotaktowa	!	!	!	!	!
1.FF	-gą;	1.ryy	1.f	-go	1.ryy
=9-	=9-	=9-	=9-	=9-	=9-
1F	roz-	1.ryy	1a	roz-	1.ryy
2D/	-licz-	.	2b-\	-licz-	.
=10-	=10-	=10-	=10-	=10-	=10-
!	!	!	!LO:SIC:v:t=custos f	!	!
1E-X	-ne-	1.ryy	1g	-ne-	1.ryy
!	!	!	!LO:LB:g=original	!	!
2E-\	-mi	.	2f/	-mi	.
=11-	=11-	=11-	=11-	=11-	=11-
2C/	Pie-	1.ryy	2g/	pies-	1.ryy
1D	-ſnia-	.	(2g/	-nia-	.
.	.	.	2f#X/)	.	.
=12-	=12-	=12-	=12-	=12-	=12-
!LO:SIC:v:t=custos D	!	!	!	!	!
!LO:SIC:v:s=1GG.	!	!	!	!	!
1.FF	-mi	1.ryy	2g,</	-mi,	1.ryy
.	.	.	4b-\	i-	.
.	.	.	4a\	-le	.
.	.	.	4b-\	mo-	.
.	.	.	4cc\	-zesz	.
!LO:LB:g=original	!	!	!	!	!
=13-	=13-	=13-	=13-	=13-	=13-
2.D/	i-	1.ryy	2.dd\	chwal	1.ryy
4C\	-le	.	4cc\	.	.
4D/	mo-	.	2b-\	.	.
4Eny/	-ʒeſz	.	.	.	.
=14-	=14-	=14-	=14-	=14-	=14-
1F	chwal	1.ryy	2a,<\	go	1.ryy
.	.	.	4a\	i-	.
.	.	.	4g/	-le	.
2D/	go	.	4a\	mo-	.
.	.	.	4b-\	-zesz	.
=15-	=15-	=15-	=15-	=15-	=15-
2.C/	i-	1.ryy	1cc	chwal	1.ryy
4BB-/	-le	.	.	.	.
4C/	mo-	.	2a\	go	.
4D/	-ʒeſz	.	.	.	.
=16-	=16-	=16-	=16-	=16-	=16-
1E	chwal	1.ryy	2.g/	smie-	1.ryy
!	!	!	!LO:SIC:v:t=custos g	!	!
.	.	.	4fny/	.	.
!	!	!	!LO:LB:g=original	!	!
2C/	go	.	4g/	.	.
.	.	.	4a\	.	.
=17-	=17-	=17-	=17-	=17-	=17-
4BB-/	Smie-	1.ryy	1b-	.	1.ryy
4C/	.	.	.	.	.
4D/	.	.	.	.	.
4E/	.	.	.	.	.
2F\	.	.	2a\	.	.
=18-	=18-	=18-	=18-	=18-	=18-
*M2/2	*	*	*M2/2	*	*
*met(C|)	*	*	*met(C|)	*	*
1BB-	-le,	1ryy	1b-	-le	1ryy
=19-	=19-	=19-	=19-	=19-	=19-
4.BB-/	Bȳſ	1ryy	4.dd\	bÿs	1ryy
!LO:N:vis=4	!	!	!	!	!
8C,</	.	.	8cc\	.	.
4D/	Bȳl	.	4b-\	bÿł	.
4F\	An-	.	4a\	an-	.
=20-	=20-	=20-	=20-	=20-	=20-
4BB-/	-guł	1ryy	4b-\	-gioł	1ryy
4BB-/	w_lu-	.	4g/	w_lu-	.
4F\	.	.	8a\L	-ckiem	.
.	.	.	8b-\J	.	.
4C/	-ckim	.	2cc\	cie-	.
=21-	=21-	=21-	=21-	=21-	=21-
2G\	Cie-	1ryy	.	.	1ryy
.	.	.	4b-\	.	.
2C/	-le	.	2cc,<\	-le	.
!LO:LB:g=original	!	!	!	!	!
=22-	=22-	=22-	=22-	=22-	=22-
4.F\	Nie	1ryy	4.a\	nie	1ryy
!LO:N:vis=4	!	!	!	!	!
8C/	wȳ-	.	8a\	wÿs-	.
4D\	-ſtar-	.	4f/	-tar-	.
4BB-/	-czȳſz	.	4f/	-czÿsz	.
=23-	=23-	=23-	=23-	=23-	=23-
!	!	!	!LO:SIC:v:t=custos e	!	!
2.C/	hȳm-	1ryy	2f/	him-	1ryy
!	!	!	!LO:LB:g=original	!	!
.	.	.	2e/	-na-	.
4C/	-na-	.	.	.	.
=24-	=24-	=24-	=24-	=24-	=24-
!LO:TX:t=P:problem=kreska pseudotaktowa	!	!	!LO:TX:t=P:problem=kreska pseudotaktowa podwójna	!	!
1F;<	-mȳ,	1ryy	1f;	-mi;	1ryy
=25-	=25-	=25-	=25-	=25-	=25-
1F	O-	1ryy	2r	.	1ryy
.	.	.	4f/	O-	.
.	.	.	4f/	-raz	.
=26-	=26-	=26-	=26-	=26-	=26-
1F	-raz	1ryy	8f/L	trą-	1ryy
.	.	.	8g/	.	.
.	.	.	8a/	.	.
.	.	.	8b-/J	.	.
.	.	.	2cc\	.	.
=27-	=27-	=27-	=27-	=27-	=27-
1F	trą-	1ryy	4a\	-bÿ	1ryy
.	.	.	8cc\	o-	.
.	.	.	8b-\	-raz	.
.	.	.	2a\	gło-	.
=28-	=28-	=28-	=28-	=28-	=28-
2F\	-bȳ,	1ryy	2g/	-sÿ	1ryy
2r	.	.	2r	.	.
=29-	=29-	=29-	=29-	=29-	=29-
1G	o-	1ryy	4g/	O-	1ryy
.	.	.	4g/	-raz	.
.	.	.	8g\L	trą-	.
.	.	.	8a\	.	.
.	.	.	8b-\	.	.
.	.	.	8cc\J	.	.
=30-	=30-	=30-	=30-	=30-	=30-
1G	-raz	1ryy	2dd\	.	1ryy
.	.	.	4b-\	-by	.
.	.	.	8dd\	o-	.
!	!	!	!LO:SIC:v:l:t=custos głosÿ	!	!
!	!	!	!LO:SIC:v:t=custos b	!	!
.	.	.	8cc\	-raz	.
!	!	!	!LO:PB:g=original	!	!
=31-	=31-	=31-	=31-	=31-	=31-
2G\	gło-	1ryy	2b-\	gło-	1ryy
2GG/	-sȳ	.	2g/	-ſÿ	.
=32-	=32-	=32-	=32-	=32-	=32-
2G\	wȳ-	1ryy	8g/	wy-	1ryy
.	.	.	8a/	-bie-	.
.	.	.	8b-\	-gai-	.
.	.	.	8cc\	.	.
2D/	-bie-	.	8dd\	-cie	.
.	.	.	8ee\	pod	.
.	.	.	8ff\	nie-	.
!	!	!	!LO:N:vis=8	!	!
.	.	.	16gg\LL	-bio-	.
!	!	!	!LO:N:vis=8	!	!
.	.	.	16ff\JJ	.	.
=33-	=33-	=33-	=33-	=33-	=33-
2A\	-gai-	1ryy	2ee\	.	1ryy
!	!	!	!LO:N:vis=2	!	!
2D/	-cie	.	4dd\	-ſÿ	.
.	.	.	4r	.	.
=34-	=34-	=34-	=34-	=34-	=34-
8A\L	Pod	1ryy	8f/	wÿ-	1ryy
8G\	.	.	8g/	-bie-	.
8F\	.	.	8a\	-gai-	.
8G\	.	.	8b-\	-cie	.
8A\	.	.	8cc\	pod	.
8F\	.	.	8dd\	nie-	.
8E\	.	.	8ee-X\L	-bio-	.
8D\J	.	.	8dd\J	.	.
=35-	=35-	=35-	=35-	=35-	=35-
4C/	.	1ryy	2.cc\	.	1ryy
!LO:SIC:v:t=custos G	!	!	!	!	!
4C/	nie-	.	.	.	.
!LO:LB:g=original	!	!	!	!	!
2G\	-bio-	.	.	.	.
!	!	!	!LO:SIC:v:t=custos cc	!	!
!	!	!	!LO:N:acc=#	!	!
.	.	.	4bn\	.	.
!	!	!	!LO:LB:g=original	!	!
=36-	=36-	=36-	=36-	=36-	=36-
1C;	-ſȳ	1ryy	1cc\	-sy,	1ryy
=37-	=37-	=37-	=37-	=37-	=37-
*M3/2	*	*	*M3/2	*	*
1F	Spi-	1.ryy	1a	spie-	1.ryy
2F\	-wai	.	2a\	-wai	.
=38-	=38-	=38-	=38-	=38-	=38-
!LO:TX:b:t=mocno	!	!	!	!	!
2F\	Ser-	1.ryy	2a\	ser-	1.ryy
!	!	!	!LO:TX:a:t=mocno:rj	!	!
2F\	-ce	.	2a\	-ce	.
2BB-/	we-	.	2b-y\	we-	.
=39-	=39-	=39-	=39-	=39-	=39-
1F	ſo-	1.ryy	1a	ſo-	1.ryy
!LO:TX:t=P:problem=kreska pseudotaktowa	!	!	!LO:TX:t=P:problem=kreska pseudotaktowa	!	!
2F\	-lo	.	2a\	-ło,	.
=40-	=40-	=40-	=40-	=40-	=40-
*	*ij	*	*	*	*
1F	Spi-	1.ryy	1a	spie-	1.ryy
2F\	-wai	.	2a\	-wai	.
=41-	=41-	=41-	=41-	=41-	=41-
!LO:TX:b:t=cicho	!	!	!LO:TX:a:t=echo:rj	!	!
2F\	Ser-	1.ryy	2a\	ser-	1.ryy
2F\	-ce	.	2a\	-ce	.
2BB-/	we-	.	2b-\	we-	.
=42-	=42-	=42-	=42-	=42-	=42-
1F	-ſo-	1.ryy	1a	-so-	1.ryy
!LO:TX:t=P:problem=kreska pseudotaktowa	!	!	!LO:TX:t=P:problem=kreska pseudotaktowa	!	!
2F\	-ło	.	2a\	-ło,	.
*	*Xij	*	*	*	*
=43-	=43-	=43-	=43-	=43-	=43-
1BB-	Ddȳſ	1.ryy	1b-	Dzis	1.ryy
2F\	Bug	.	2a\	bug	.
=44-	=44-	=44-	=44-	=44-	=44-
!	!	!	!LO:TX:a:t=mocno	!	!
1G	ʒ_ludʒ-	1.ryy	4g\	z_lu-	1.ryy
.	.	.	4a\	.	.
.	.	.	4b-\	.	.
!	!	!	!LO:SIC:v:t=custos dd	!	!
.	.	.	4cc\	.	.
!LO:TX:b:t=mocno	!	!	!LO:LB:g=original	!	!
2D/	-mi	.	2dd\	.	.
=45-	=45-	=45-	=45-	=45-	=45-
!	!	!	!LO:TX:b:t=P:problem=# below	!	!
1A	trȳ-	1.ryy	2cc#X\	-mi	1.ryy
!	!	!	!LO:TX:b:t=P:problem=# below	!	!
.	.	.	2cc#X\	trÿ-	.
2A\	-um-	.	2cc#\	-um-	.
=46-	=46-	=46-	=46-	=46-	=46-
1D	-fu-	1.ryy	1dd	-phu-	1.ryy
!LO:TX:t=P:problem=kreska pseudotaktowa	!	!	!LO:TX:t=P:problem=kreska pseudotaktowa	!	!
2D/	-ie;	.	2dd\	-ie	.
!LO:PB:g=original	!	!	!	!	!
=47-	=47-	=47-	=47-	=47-	=47-
*	*ij	*	*	*	*
1BB-	Ddȳſ	1.ryy	1b-	Dzis	1.ryy
2F\	Bug	.	2a\	bug	.
=48-	=48-	=48-	=48-	=48-	=48-
1G	ʒ_ludʒ-	1.ryy	4g/	z_lu-	1.ryy
!	!	!	!LO:TX:a:t=echo	!	!
.	.	.	4a\	.	.
.	.	.	4b-\	.	.
.	.	.	4ccny\	.	.
!LO:TX:b:t=cicho	!	!	!	!	!
2D/	-mi	.	2dd\	.	.
=49-	=49-	=49-	=49-	=49-	=49-
!	!	!	!LO:TX:b:t=P:problem=# below	!	!
1A	trȳ-	1.ryy	2cc#X\	-mi	1.ryy
!	!	!	!LO:TX:b:t=P:problem=# below	!	!
.	.	.	2cc#X\	tri-	.
2A\	-um-	.	2cc#\	-um-	.
=50-	=50-	=50-	=50-	=50-	=50-
1D	-fu-	1.ryy	1dd	-phu-	1.ryy
2D/	-ie;	.	2dd\	-ie	.
*	*Xij	*	*	*	*
=51-	=51-	=51-	=51-	=51-	=51-
*M2/2	*	*	*M2/2	*	*
*met(C|)	*	*	*met(C|)	*	*
!	!	!	!LO:N:acc=#	!	!
4.G\	Trȳ-	1ryy	4.bn\	trÿ-	1ryy
8C/	-um-	.	8b\	-um-	.
!	!	!	!LO:SIC:v:t=custos cc	!	!
!	!	!	!LO:N:acc=#	!	!
4G\	-fu-	.	4bn\	-phu-	.
4C,</	-ie	.	4ccny,<\	-ie	.
!	!	!	!LO:LB:g=original	!	!
=52-	=52-	=52-	=52-	=52-	=52-
*	*ij	*	*	*ij	*
4F\	Trȳ-	1ryy	4.a\	trÿ-	1ryy
4BB-/	-um-	.	.	.	.
.	.	.	8b-y\	-um-	.
4F\	-fu-	.	4a\	-phu-	.
!LO:N:vis=8	!	!	!	!	!
4BB-/	-ie	.	4b-,<\	-ie	.
*	*	*	*	*Xij	*
=53-	=53-	=53-	=53-	=53-	=53-
8D\	Trȳ-	1ryy	8f/	tri-	1ryy
8D\	-um-	.	8f/	-um-	.
8BB-/	-fu-	.	8b-\	-phu-	.
8BB-/	-ie	.	8b-,<\	-ie	.
*	*	*	*	*ij	*
8E-X\	Trȳ-	.	8g/	tri-	.
8E-\	-um-	.	8g/	-um-	.
8C/	-fu-	.	8cc\	-phu-	.
8C/	-je	.	8cc,<\	-ie	.
*	*	*	*	*Xij	*
=54-	=54-	=54-	=54-	=54-	=54-
8F\	Trȳ-	1ryy	8a\	trÿ-	1ryy
8F\	-um-	.	8a\	-um-	.
8D\	-fu-	.	8dd\	-phu-	.
!LO:SIC:v:t=custos G	!	!	!	!	!
8D\	-ie	.	8dd\	-ie	.
*	*Xij	*	*	*ij	*
!LO:LB:g=original	!	!	!	!	!
4.G\	Trȳ-	.	4.b-,<\	trÿ-	.
8F\	.	.	8dd\	-um-	.
=55-	=55-	=55-	=55-	=55-	=55-
4G\	-um-	1ryy	(4dd\	-phu-	1ryy
4A\	-fu-	.	4cc\)	.	.
2D/	-ie;	.	2dd\	-ie	.
*	*	*	*	*Xij	*
=56-	=56-	=56-	=56-	=56-	=56-
!	!	!	!LO:SIC:v:t=custos a	!	!
2r	.	1ryy	2r	.	1ryy
!	!	!	!LO:LB:g=original	!	!
4F\	Dzȳſ	.	8a\L	dzis	.
.	.	.	8g\	.	.
4F\	ſwoi	.	8f\	ſwoi	.
.	.	.	8g\J	.	.
=57-	=57-	=57-	=57-	=57-	=57-
4.F\	Ban-	1ryy	4.a\	ban-	1ryy
8F\	-kiet	.	8f/	-kiet	.
4D/	wȳ-	.	4g\	wÿ-	.
4F\	-pra-	.	4f/	-pra-	.
=58-	=58-	=58-	=58-	=58-	=58-
2C/	-wu-	1ryy	2e/	-wu-	1ryy
!LO:TX:t=P:problem=kreska pseudotaktowa	!	!	!	!	!
2F\	-ie;	.	2f,</	-ie	.
=59-	=59-	=59-	=59-	=59-	=59-
4G#X\	Nie-	1ryy	(8dd\L	nie-	1ryy
.	.	.	8cc\)	.	.
4G#X\	-bie-	.	(8b-\	-bie-	.
.	.	.	8a\J)	.	.
!	!	!	!LO:SIC:v:t=custos=4bn\	!	!
4G#X\	-ſkie	.	4b-\	-ſkie	.
!	!	!	!LO:SIC:v:t=custos=4bn\	!	!
4Gny\	tan-	.	4b-\	tan-	.
=60-	=60-	=60-	=60-	=60-	=60-
!	!	!	!LO:SIC:v:t=custos=4.bn\	!	!
4.G\	-ce	1ryy	4.b-\	-ce	1ryy
8Eny\	ce_go-	.	8cc\	go-	.
(4F\	-tu-	.	(4cc\	-tu-	.
4Gny\)	.	.	4b-\)	.	.
=61-	=61-	=61-	=61-	=61-	=61-
!LO:TX:t=P:problem=kreska pseudotaktowa	!	!	!	!	!
1C	-ie;	1ryy	1cc	-ie,	1ryy
=62-	=62-	=62-	=62-	=62-	=62-
4F\	Dʒȳs	1ryy	(8cc\L	dzis	1ryy
.	.	.	8b-\)	.	.
4F\	swoi	.	(8a\	ſwoi	.
!	!	!	!LO:SIC:v:t=custos a	!	!
.	.	.	8g\J)	.	.
!	!	!	!LO:LB:g=original	!	!
4F\	Ban-	.	4a\	ban-	.
4F\	-kiet	.	4a\	-kiet	.
=63-	=63-	=63-	=63-	=63-	=63-
!LO:SIC:v:t=custos D	!	!	!	!	!
4.F\	wȳ-	1ryy	4.a\	wÿ-	1ryy
!LO:LB:g=original	!	!	!	!	!
8D\	-Pra-	.	8b-\	-pra-	.
(4E-X\	-wu-	.	(4b-\	-wu-	.
4F\)	.	.	4a\)	.	.
=64-	=64-	=64-	=64-	=64-	=64-
!LO:TX:t=P:problem=kreska pseudotaktowa	!	!	!	!	!
1BB-	-ie;	1ryy	1b-	-ie,	1ryy
=65-	=65-	=65-	=65-	=65-	=65-
4F\	Nie-	1ryy	(8a\L	nie-	1ryy
.	.	.	8g\)	.	.
4F\	-bie-	.	(8a\	-bie-	.
.	.	.	8b-\J)	.	.
4F\	-skie	.	4cc\	ſkie	.
4F\	tan-	.	4f/	tan-	.
=66-	=66-	=66-	=66-	=66-	=66-
4.C/	-ce	1ryy	4.e/	-ce	1ryy
8AA/	go-	.	8f/	go-	.
(4BB-/	-tu-	.	(4f/	-tu-	.
4C/)	.	.	4e/)	.	.
=67-	=67-	=67-	=67-	=67-	=67-
2F\	-ie;	1ryy	2f/	-ie,	1ryy
4Eny\	Nie-	.	2r	.	.
4F\	-bie-	.	.	.	.
=68-	=68-	=68-	=68-	=68-	=68-
4C/	ſkie	1ryy	4g\	nie-	1ryy
4G\	tan-	.	4a\	-bie-	.
1G\	-ce	.	4b-\	ſkie	.
.	.	.	4cc\	tą-	.
=69-	=69-	=69-	=69-	=69-	=69-
.	.	1ryy	4dd\	-ce	1ryy
!	!	!	!LO:SIC:v:t=custos b	!	!
!	!	!	!LO:SIC:v:l:t=custos tuie	!	!
.	.	.	4ee-X\	go-	.
!	!	!	!LO:PB:g=original	!	!
!	!	!	!LO:N:acc=#	!	!
2G\	go-	.	4bn\	-tu-	.
.	.	.	4cc\	.	.
=70-	=70-	=70-	=70-	=70-	=70-
1G	-tu-	1ryy	4dd\	.	1ryy
.	.	.	4ee-X\	.	.
.	.	.	2dd\	.	.
=71-	=71-	=71-	=71-	=71-	=71-
!LO:TX:t=P:problem=kreska pseudotaktowa	!	!	!LO:TX:t=P:problem=kreska pseudotaktowa podwójna	!	!
1C	-ie;	1ryy	1cc;<	-ie,	1ryy
=72-	=72-	=72-	=72-	=72-	=72-
4F\	O-	1ryy	4a\	O-	1ryy
4F\	-to	.	4a\	-to	.
!LO:TX:a:t=mocno	!	!	!	!	!
4.BB-/	Z_chle-	.	4.g/	z_chle-	.
8D/	-ba	.	8f/	-ba	.
=73-	=73-	=73-	=73-	=73-	=73-
4BB-/	A-	1ryy	4f/	a-	1ryy
!	!	!	!LO:TX:a:t=mocno	!	!
4C/	-niel-	.	4e/	-niel-	.
4F\	-ſkie-	.	4f/	-skie-	.
!LO:TX:t=P:problem=kreska pseudotaktowa	!	!	!LO:TX:t=P:problem=kreska pseudotaktowa	!	!
4F\	-go;	.	4f/	-go	.
=74-	=74-	=74-	=74-	=74-	=74-
*	*ij	*	*	*ij	*
4F\	O-	1ryy	4a\	O-	1ryy
!	!	!	!LO:TX:a:t=echo	!	!
4F\	-to	.	4a\	-to	.
!LO:TX:a:t=cicho	!	!	!	!	!
!LO:SIC:v:t=custos D	!	!	!	!	!
4.BB-/	Z_chle-	.	4.g/	z_chle-	.
!LO:LB:g=original	!	!	!	!	!
8D/	-ba	.	8f/	-ba	.
=75-	=75-	=75-	=75-	=75-	=75-
4BB-/	A-	1ryy	4f/	a-	1ryy
4C/	-niel-	.	4e/	-niel-	.
!	!	!	!LO:SIC:v:t=custos f	!	!
4F\	-ſkie-	.	4f/	-skie-	.
!	!	!	!LO:LB:g=original	!	!
!LO:TX:t=P:problem=kreska pseudotaktowa	!	!	!LO:TX:t=P:problem=kreska pseudotaktowa	!	!
4F\	-go	.	4f/	-go	.
*	*Xij	*	*	*Xij	*
=76-	=76-	=76-	=76-	=76-	=76-
4F\	Stał	1ryy	4a\	Stał	1ryy
8D\	sie	.	8b-y\	się	.
!LO:TX:a:t=mocno	!	!	!	!	!
8C\	Po-	.	8cc\	po-	.
4BB-/	-karm	.	4dd\	-karm	.
8BB-/	Po-	.	8dd\	po-	.
8C/	-dro-	.	8cc\	-droz-	.
=77-	=77-	=77-	=77-	=77-	=77-
!	!	!	!LO:TX:b:t=mocno	!	!
2G\	-ʒne-	1ryy	(4cc\	-ne-	1ryy
!	!	!	!LO:N:acc=#	!	!
.	.	.	4bn\)	.	.
!LO:TX:t=P:problem=kreska pseudotaktowa	!	!	!LO:TX:t=P:problem=kreska pseudotaktowa	!	!
2C/	-(go)	.	2cc\	-go	.
=78-	=78-	=78-	=78-	=78-	=78-
*	*ij	*	*	*ij	*
4F\	Stał	1ryy	4a\	Stał	1ryy
8D\	sie	.	8b-y\	się	.
!LO:TX:a:t=cicho	!	!	!	!	!
8C\	Po-	.	8cc\	po-	.
!	!	!	!LO:TX:b:t=echo	!	!
4BB-/	-karm	.	4dd\	-karm	.
8BB-/	Po-	.	8dd\	po-	.
8C/	-dro-	.	8cc\	-droz-	.
=79-	=79-	=79-	=79-	=79-	=79-
2G\	-ʒne-	1ryy	(4cc\	-ne-	1ryy
!	!	!	!LO:N:acc=#	!	!
.	.	.	4bn\)	.	.
!LO:TX:t=P:problem=kreska pseudotaktowa	!	!	!LO:TX:t=P:problem=kreska pseudotaktowa	!	!
2C/	-(go)	.	2cc\	-go	.
*	*Xij	*	*	*Xij	*
=80-	=80-	=80-	=80-	=80-	=80-
4.F\	chlib	1ryy	4a\	Chleb	1ryy
!	!	!	!LO:SIC:v:t=custos a	!	!
.	.	.	4f/	dla	.
8F\	dla	.	.	.	.
!	!	!	!LO:LB:g=original	!	!
4F\	Sȳ-	.	4a\	ſÿ-	.
4F\	-nuw	.	4a\	-now	.
=81-	=81-	=81-	=81-	=81-	=81-
!LO:TX:a:t=mocno	!	!	!	!	!
4BB-/	sgo-	1ryy	4b-y\	zgo-	1ryy
4C/	-to-	.	(8a\L	-to-	.
!	!	!	!LO:TX:a:t=mocno	!	!
.	.	.	8g\J)	.	.
2D/	-wa-	.	(4g\	-wa-	.
.	.	.	4f#X/)	.	.
=82-	=82-	=82-	=82-	=82-	=82-
!LO:SIC:v:t=custos F	!	!	!LO:TX:t=P:problem=kreska pseudotaktowa	!	!
2G\	-nȳ;	1ryy	2g\	-nÿ,	1ryy
*	*ij	*	*	*ij	*
!LO:LB:g=original	!	!	!	!	!
4.F\	chlib	.	4a\	chleb	.
.	.	.	4fny/	dla	.
8F\	dla	.	.	.	.
=83-	=83-	=83-	=83-	=83-	=83-
!	!	!	!LO:TX:a:t=echo	!	!
4F\	Sȳ-	1ryy	4a\	ſÿ-	1ryy
4F\	-nuw	.	4a\	-nów	.
!LO:TX:a:t=cicho	!	!	!	!	!
4BB-/	sgo-	.	4b-\	zgo-	.
4C/	-to-	.	(8a\L	-to-	.
.	.	.	8g\J)	.	.
=84-	=84-	=84-	=84-	=84-	=84-
2D/	-wa-	1ryy	(4g\	-wa-	1ryy
.	.	.	4f#X/)	.	.
!LO:TX:t=P:problem=kreska pseudotaktowa	!	!	!LO:TX:t=P:problem=kreska pseudotaktowa	!	!
2G\	-nȳ;	.	2g\	-nÿ	.
*	*Xij	*	*	*Xij	*
=85-	=85-	=85-	=85-	=85-	=85-
4G\	Nie	1ryy	4b-\	Nie	1ryy
!	!	!	!LO:TX:b:t=mocno	!	!
4E\	ma	.	4cc\	ma	.
!LO:TX:a:t=mocno	!	!	!LO:SIC:v:t=custos dd	!	!
4D\	bȳc	.	4dd\	bÿc	.
!	!	!	!LO:LB:g=original	!	!
4BB-/	pſum	.	4dd\	pſom	.
=86-	=86-	=86-	=86-	=86-	=86-
4D\	Po-	1ryy	4dd\	po-	1ryy
4E\	-mia-	.	(4cc\	-mie-	.
2F\	-tȳ-	.	4b-\)	.	.
.	.	.	(4b-\	-ta-	.
=87-	=87-	=87-	=87-	=87-	=87-
!LO:TX:t=P:problem=kreska pseudotaktowa	!	!	!	!	!
2BB-/	-nȳ;	1ryy	4a\)	.	1ryy
.	.	.	2b-,<\	-nÿ	.
*	*ij	*	*	*	*
4G\	Nie	.	.	.	.
*	*	*	*	*ij	*
4E\	ma	.	4b-\	Nie	.
=88-	=88-	=88-	=88-	=88-	=88-
!LO:TX:a:t=cicho	!	!	!	!	!
4D\	bȳć	1ryy	4cc\	ma	1ryy
!	!	!	!LO:TX:b:t=cicho	!	!
4BB-/	pſum	.	4dd\	bÿć	.
4D\	po-	.	4dd\	pſom	.
4E-X\	-mia-	.	4dd\	po-	.
=89-	=89-	=89-	=89-	=89-	=89-
!LO:N:vis=1	!	!	!	!	!
2F\	-tȳ-	1ryy	(8cc\L	-mie-	1ryy
.	.	.	8b-\J)	.	.
.	.	.	8b-\L	-ta-	.
.	.	.	8a\J	.	.
!LO:TX:t=P:problem=kreska pseudotaktowa	!	!	!	!	!
2BB-/	-nȳ;	.	2b-,<\	-nÿ	.
*	*Xij	*	*	*Xij	*
=90-	=90-	=90-	=90-	=90-	=90-
4D\	Nie	1ryy	4fny/	nie	1ryy
4G\	ma	.	4g/	ma	.
!	!	!	!LO:TX:a:t=mocno	!	!
4F\	bȳc	.	4a\	bÿc	.
4F\	pſum	.	4a\	pſom	.
=91-	=91-	=91-	=91-	=91-	=91-
4F\	Po-	1ryy	4a\	po-	1ryy
!LO:TX:a:t=mocno	!	!	!	!	!
4BB-/	-mia-	.	(8g/L	-mie-	.
!	!	!	!LO:SIC:v:t=custos f	!	!
.	.	.	8f/J)	.	.
!	!	!	!LO:LB:g=original	!	!
2C/	-ta-	.	(4f/	-ta-	.
.	.	.	4e/)	.	.
=92-	=92-	=92-	=92-	=92-	=92-
2F\	-nȳ	1ryy	2f/	-nÿ	1ryy
*	*ij	*	*	*ij	*
!LO:LB:g=original	!	!	!	!	!
4D\	Nie	.	4f/	nie	.
4G\	ma	.	4g/	ma	.
=93-	=93-	=93-	=93-	=93-	=93-
4F\	bȳc	1ryy	4a\	bÿć	1ryy
!	!	!	!LO:TX:a:t=echo	!	!
4F\	pſum	.	4a\	pſom	.
4F\	po-	.	4a\	po-	.
4BB-/	-mia-	.	(8g/L	-mie-	.
.	.	.	8f/J)	.	.
=94-	=94-	=94-	=94-	=94-	=94-
!	!	!	!LO:N:vis=8	!	!
2C/	-ta-	1ryy	(4fL/	-ta-	1ryy
!	!	!	!LO:N:vis=8	!	!
.	.	.	4eJ/)	.	.
!LO:TX:t=P:problem=kreska pseudotaktowa	!	!	!	!	!
2F\	-nȳ	.	2f,</	-nÿ	.
*	*Xij	*	*	*Xij	*
=95-	=95-	=95-	=95-	=95-	=95-
4B-\	Po-	1ryy	4dd\	po-	1ryy
4A\	-mia-	.	4cc\	-mie-	.
2B-\	-ta-	.	8b-\L	-ta-	.
.	.	.	8f\J	.	.
.	.	.	8g/L	.	.
.	.	.	8a/J	.	.
=96-	=96-	=96-	=96-	=96-	=96-
1BB-	.	1ryy	1b-	.	1ryy
=97-	=97-	=97-	=97-	=97-	=97-
!	!	!	!LO:SIC:v:t=custos a	!	!
1F	-nȳ;	1ryy	1a;<	-nÿ	1ryy
!	!	!	!LO:LB:g=original	!	!
=98-	=98-	=98-	=98-	=98-	=98-
*M2/2	*	*	*M2/2	*	*
*met(C|)	*	*	*met(C|)	*	*
1F	O	1ryy	1a	O	1ryy
=99-	=99-	=99-	=99-	=99-	=99-
2F\	Paſ-	1ryy	2a\	pa-	1ryy
2G\	-tȳ-	.	2g/	ſte-	.
=100-	=100-	=100-	=100-	=100-	=100-
1D	-rzu	1ryy	1f	-rzu	1ryy
=101-	=101-	=101-	=101-	=101-	=101-
2.D/	Do-	1ryy	2f/	do-	1ryy
.	.	.	2g/	-bro-	.
4C#X/	-bro-	.	.	.	.
=102-	=102-	=102-	=102-	=102-	=102-
1D	-tli-	1ryy	1f#X	-tli-	1ryy
=103-	=103-	=103-	=103-	=103-	=103-
1D	-wy	1ryy	1f#X	-wy,	1ryy
=104-	=104-	=104-	=104-	=104-	=104-
4G\	chle-	1ryy	2r	.	1ryy
8F\	-bie	.	.	.	.
8G\	duſz	.	.	.	.
8E-X\L	na-	.	4cc\	chle-	.
8F\J	.	.	.	.	.
8G\L	.	.	8b-\	-bie	.
8E-\J	.	.	8cc\	dusz	.
=105-	=105-	=105-	=105-	=105-	=105-
!LO:SIC:v:t=custos F	!	!	!	!	!
2F\	-ſzȳch;	1ryy	2a\	na-	1ryy
*	*ij	*	*	*	*
!LO:LB:g=original	!	!	!	!	!
4F\	chle-	.	2cc,<\	-szÿch	.
8Eny\	-bie	.	.	.	.
8F\	duſz	.	.	.	.
=106-	=106-	=106-	=106-	=106-	=106-
4D/	na-	1ryy	4ff\	chle-	1ryy
4D/	-ſzȳch;	.	8dd\	-bie	.
*	*Xij	*	*	*	*
.	.	.	8ff\	dusz	.
4G\	chle-	.	8dd\L	na-	.
.	.	.	8eeny\	.	.
8F\	-bie	.	8ff\	.	.
8G\	duſz	.	8dd\J	.	.
=107-	=107-	=107-	=107-	=107-	=107-
8E-X\L	naſ-	1ryy	4ee-X\	.	1ryy
8F\J	.	.	.	.	.
!	!	!	!LO:SIC:v:t=custos cc	!	!
!	!	!	!LO:SIC:v:l:t=custos szich	!	!
8G\L	.	.	4dd\	.	.
8D\J	.	.	.	.	.
!	!	!	!LO:PB:g=original	!	!
(4E-X\	.	.	2cc\	.	.
4F\)	.	.	.	.	.
=108-	=108-	=108-	=108-	=108-	=108-
2BB-/	-ſʒȳch	1ryy	4dd,<\	-szych	1ryy
.	.	.	4d/	praw-	.
2r	.	.	8e/L	-dzi-	.
.	.	.	8fny/	.	.
.	.	.	8g/	.	.
.	.	.	8a/J	.	.
=109-	=109-	=109-	=109-	=109-	=109-
4r	.	1ryy	8b-\L	.	1ryy
.	.	.	8cc\	.	.
4BB-/	Praw-	.	8dd\	.	.
.	.	.	8cc\J	.	.
8Cny/L	.	.	8b-\L	.	.
8D/J	.	.	8a\	.	.
8E-X\L	-dzȳ-	.	8g\	.	.
8F\J	.	.	8a\J	.	.
=110-	=110-	=110-	=110-	=110-	=110-
8G\L	.	1ryy	2b-\	.	1ryy
8F\J	.	.	.	.	.
2BB-/	.	.	.	.	.
.	.	.	2f,</	-wÿ	.
4AA/	.	.	.	.	.
=111-	=111-	=111-	=111-	=111-	=111-
4BB-/	-wȳ	1ryy	4dd\	praw-	1ryy
4D/	Praw-	.	8g\L	-dzi-	.
.	.	.	8a\J	.	.
8GG/L	-dzȳ-	.	8b-\L	.	.
8AA/	.	.	8cc\	.	.
8BB-/	.	.	8b-\	.	.
!	!	!	!LO:SIC:v:t=custos dd	!	!
8C/J	.	.	8cc\J	.	.
!	!	!	!LO:LB:g=original	!	!
=112-	=112-	=112-	=112-	=112-	=112-
4D/	.	1ryy	4dd\	.	1ryy
8GG/	-wȳ	.	4eeny\	.	.
!LO:SIC:v:t=custos D	!	!	!	!	!
8GG/	Praw-	.	.	.	.
!LO:LB:g=original	!	!	!	!	!
8D/L	-dzȳ-	.	2ff\	.	.
8Eny/J	.	.	.	.	.
8F\L	.	.	.	.	.
8G\J	.	.	.	.	.
=113-	=113-	=113-	=113-	=113-	=113-
4A\	.	1ryy	1ee	.	1ryy
4G\	.	.	.	.	.
2A\	.	.	.	.	.
=114-	=114-	=114-	=114-	=114-	=114-
!LO:TX:t=P:problem=kreska pseudotaktowa	!	!	!	!	!
1D	-wȳ;	1ryy	1dd,<	-wy	1ryy
=115-	=115-	=115-	=115-	=115-	=115-
4BB-/	Ƶ_te-	1ryy	4dd\	z_te-	1ryy
4BB-/	-go	.	4dd\	-go	.
2.BB-/	gło-	.	2.b-\	gło-	.
=116-	=116-	=116-	=116-	=116-	=116-
.	.	1ryy	.	.	1ryy
4C/	-dne-	.	4a\	.	.
4E-X\	-go	.	4g/	-dne-	.
4F\	Pa-	.	4f/	-go	.
=117-	=117-	=117-	=117-	=117-	=117-
1C	-do-	1ryy	4e/	pa-	1ryy
.	.	.	2f/	-do-	.
.	.	.	4e/	.	.
=118-	=118-	=118-	=118-	=118-	=118-
*M3/2	*	*	*M3/2	*	*
2F\	-łu;	1.ryy	2f/	-łu	1.ryy
2D/	pro-	.	2f/	pro-	.
2G\	-wadʒ	.	2g/	-wadz	.
=119-	=119-	=119-	=119-	=119-	=119-
2.F\	naſ	1.ryy	2.a\	nas	1.ryy
4D\	do	.	4f/	do	.
2E-X\	twe-	.	4g/	twe-	.
!	!	!	!LO:SIC:v:t=custos b	!	!
.	.	.	4a\	-go	.
!	!	!	!LO:LB:g=original	!	!
=120-	=120-	=120-	=120-	=120-	=120-
2BB-/	-(go)	1.ryy	1b-	ſto-	1.ryy
1F	Sto-	.	.	.	.
.	.	.	2a\	.	.
=121-	=121-	=121-	=121-	=121-	=121-
2BB-/	-łu,	1.ryy	2b-,<\	-łu	1.ryy
2BB-/	Pro-	.	2b-\	pro-	.
2F\	-wadz	.	2a\	-wadz	.
=122-	=122-	=122-	=122-	=122-	=122-
2.BB-/	naſ	1.ryy	2.b-\	nas	1.ryy
!LO:SIC:v:t=custos F	!	!	!	!	!
4BB-/	do	.	4b-\	do	.
!LO:LB:g=original	!	!	!	!	!
2F\	twe-	.	2a\	twe-	.
=123-	=123-	=123-	=123-	=123-	=123-
2G\	-go	1.ryy	1g	-go	1.ryy
1D	ſto-	.	.	.	.
.	.	.	2f#X/	ſto-	.
=124-	=124-	=124-	=124-	=124-	=124-
2.G\	-ł[u]	1.ryy	2.g,</	-łu	1.ryy
4Eny\	do	.	4g/	do	.
2F\	twe-	.	4a\	twe-	.
.	.	.	4b-\	-go	.
=125-	=125-	=125-	=125-	=125-	=125-
!LO:TX:t=P:problem=brak taktu nr 125	!	!	!	!	!
1.ryy	.	1.ryy	1cc	ſto-	1.ryy
.	.	.	2b-\	.	.
=126-	=126-	=126-	=126-	=126-	=126-
2C/	-go	1.ryy	2cc\	-łu	1.ryy
2F\	ſto-	.	2a\	pro-	.
2BB-/	-łu	.	2b-\	-wadz	.
=127-	=127-	=127-	=127-	=127-	=127-
!	!	!	!LO:SIC:v:t=custos a	!	!
2.F\	.	1.ryy	2.a\	nas	1.ryy
4F\	.	.	4a\	do	.
2BB-/	.	.	4d/	twe-	.
.	.	.	4e/	-go	.
=128-	=128-	=128-	=128-	=128-	=128-
2D/	.	1.ryy	(1fny	sto-	1.ryy
2BB-/	.	.	.	.	.
2C/	.	.	2e/)	.	.
=129-	=129-	=129-	=129-	=129-	=129-
*M2/2	*	*	*M2/2	*	*
*met(C|)	*	*	*met(C|)	*	*
4.F\	.	1ryy	4f/	-łu	1ryy
.	.	.	4a\	do	.
8F\	.	.	.	.	.
!	!	!	!LO:N:vis=8	!	!
4BB-/	.	.	4dd\	twe-	.
!	!	!	!LO:N:vis=8	!	!
4F\	.	.	4ee\	-go	.
=130-	=130-	=130-	=130-	=130-	=130-
1C	.	1ryy	4ff\	ſto-	1ryy
.	.	.	8ee\L	.	.
.	.	.	8dd\J	.	.
.	.	.	2ee\	.	.
=131-	=131-	=131-	=131-	=131-	=131-
1F;<	.	1ryy	1ff;<	-łu;	1ryy
==	==	==	==	==	==
*-	*-	*-	*-	*-	*-
!!!system-decoration: [(s1,s2,s3,s4)]
!!!RDF**kern: < = below
!!!AIN: 4 empty
!!!ENC: Andrzej Gręziak
!!!END: 2021-10-28
!!!ENC: Andrzej Kubiczek
!!!END: 2021-11-05
